svgs/icons/sm/passport.svg

<svg xmlns="http://www.w3.org/2000/svg" viewBox="0 0 16 16" enable-background="new 0 0 16 16"><path fill="#34363D" d="M10.5 1h-8.1c-.2 0-.4.2-.4.4v13.2c0 .2.2.4.4.4h8.1c.8 0 1.5-.7 1.5-1.5v-11c0-.8-.7-1.5-1.5-1.5zm-3.5 11c-1.1 0-2-.9-2-2s.9-2 2-2 2 .9 2 2-.9 2-2 2zm-1-6v-1h2v1h-2zm3-2h-4v-1h4v1zm5-1.5v11c0 .8-.7 1.5-1.5 1.5h-.5v-.1c.6-.2 1-.8 1-1.4v-11c0-.7-.4-1.2-1-1.4v-.1h.5c.8 0 1.5.7 1.5 1.5z"/></svg>

<svg xmlns="http://www.w3.org/2000/svg" viewBox="0 0 16 16"><path fill="#34363D" d="M10.5 1H2.4c-.2 0-.4.2-.4.4v13.2c0 .2.2.4.4.4h8.1c.8 0 1.5-.7 1.5-1.5v-11c0-.8-.7-1.5-1.5-1.5zM7 12c-1.1 0-2-.9-2-2s.9-2 2-2 2 .9 2 2-.9 2-2 2zM6 6V5h2v1H6zm3-2H5V3h4v1zm5-1.5v11c0 .8-.7 1.5-1.5 1.5H12v-.1c.6-.2 1-.8 1-1.4v-11c0-.7-.4-1.2-1-1.4V1h.5c.8 0 1.5.7 1.5 1.5z"/></svg>
